X: 2567
T: Ballykett Courthouse
R: reel
M: 4/4
K: Gmajor
Bc|dzeB dBAG|EAAG AABc|dzeB dBAG|EGGF GGBc|
dgeB dBAG|EAAG AABc|dzeB dBAG|EGGF GGfa||
~g3f edBd|eaaa agef|~g3f edBd|eaaf ggef|
gzfg edBd|eaab agef|gzfd edB/c/d|eaaf ggBc||

